X:1
T:Calliope House in D (After playing once, go back to Glen Echo.)
I:Calliope House	J-39	E	jig
M:6/8
R:jig
K:Dmaj
A| "D"dAA fAA| eAA fAA| "G"Bee e2d| "A"efd BdB|
"D"ABA A2F| A2B d2e|1 "G"faf fed| "A"e3 e2:|2 "G"faf "A"edB| "D"d3 dfg|]
|: "D(Am7)"a3 faa|"D" eaa faa| "G"g3 fgf| "A"efe edB|
"D"ABA A2F| "Bm"A2B d2e|1 "G"faf fed| "A"e3 efg:|2 "G"faf "A"edB| "D"d3 d2|]
%%text Roaring Jelly  J-39
%%text 05/22/10
